packages/radix-icons/outline/15/component-simple.svg

<svg width="15" height="15" fill="none" xmlns="http://www.w3.org/2000/svg">
  <path
    fill-rule="evenodd"
    clip-rule="evenodd"
    d="M4.87935 2L4.9 2H10.1L10.1206 2C10.5231 1.99999 10.8553 1.99999 11.1259 2.0221C11.407 2.04506 11.6653 2.09434 11.908 2.21799C12.2843 2.40973 12.5903 2.71569 12.782 3.09202C12.9057 3.33469 12.9549 3.59304 12.9779 3.87409C13 4.14468 13 4.47686 13 4.87934V4.9V10.1V10.1207C13 10.5231 13 10.8553 12.9779 11.1259C12.9549 11.407 12.9057 11.6653 12.782 11.908C12.5903 12.2843 12.2843 12.5903 11.908 12.782C11.6653 12.9057 11.407 12.9549 11.1259 12.9779C10.8553 13 10.5231 13 10.1207 13H10.1H4.9H4.87934C4.47686 13 4.14468 13 3.87409 12.9779C3.59304 12.9549 3.33469 12.9057 3.09202 12.782C2.71569 12.5903 2.40973 12.2843 2.21799 11.908C2.09434 11.6653 2.04506 11.407 2.0221 11.1259C1.99999 10.8553 1.99999 10.5231 2 10.1206L2 10.1V4.9L2 4.87935C1.99999 4.47687 1.99999 4.14468 2.0221 3.87409C2.04506 3.59304 2.09434 3.33469 2.21799 3.09202C2.40973 2.71569 2.71569 2.40973 3.09202 2.21799C3.33469 2.09434 3.59304 2.04506 3.87409 2.0221C4.14468 1.99999 4.47687 1.99999 4.87935 2ZM3.95552 3.01878C3.73631 3.03669 3.62421 3.06915 3.54601 3.10899C3.35785 3.20487 3.20487 3.35785 3.10899 3.54601C3.06915 3.62421 3.03669 3.73631 3.01878 3.95552C3.00039 4.18056 3 4.47171 3 4.9V10.1C3 10.5283 3.00039 10.8194 3.01878 11.0445C3.03669 11.2637 3.06915 11.3758 3.10899 11.454C3.20487 11.6422 3.35785 11.7951 3.54601 11.891C3.62421 11.9309 3.73631 11.9633 3.95552 11.9812C4.18056 11.9996 4.47171 12 4.9 12H10.1C10.5283 12 10.8194 11.9996 11.0445 11.9812C11.2637 11.9633 11.3758 11.9309 11.454 11.891C11.6422 11.7951 11.7951 11.6422 11.891 11.454C11.9309 11.3758 11.9633 11.2637 11.9812 11.0445C11.9996 10.8194 12 10.5283 12 10.1V4.9C12 4.47171 11.9996 4.18056 11.9812 3.95552C11.9633 3.73631 11.9309 3.62421 11.891 3.54601C11.7951 3.35785 11.6422 3.20487 11.454 3.10899C11.3758 3.06915 11.2637 3.03669 11.0445 3.01878C10.8194 3.00039 10.5283 3 10.1 3H4.9C4.47171 3 4.18056 3.00039 3.95552 3.01878Z"
    fill="currentColor"
  />
</svg>

<svg width="15" height="15" fill="none" xmlns="http://www.w3.org/2000/svg">
  <path
    fill-rule="evenodd"
    clip-rule="evenodd"
    d="M4.88 2H10.12c.403 0 .735 0 1.006.022.281.023.54.072.782.196a2 2 0 01.874.874c.124.243.173.501.196.782.022.27.022.603.022 1.005v5.241c0 .403 0 .735-.022 1.006-.023.281-.072.54-.196.782a2 2 0 01-.874.874c-.243.124-.501.173-.782.196-.27.022-.603.022-1.005.022H4.88c-.403 0-.735 0-1.006-.022-.281-.023-.54-.072-.782-.196a2 2 0 01-.874-.874c-.124-.243-.173-.501-.196-.782A13.35 13.35 0 012 10.12V4.88c0-.403 0-.735.022-1.006.023-.281.072-.54.196-.782a2 2 0 01.874-.874c.243-.124.501-.173.782-.196C4.144 2 4.477 2 4.88 2zm-.924 1.019c-.22.018-.332.05-.41.09a1 1 0 00-.437.437c-.04.078-.072.19-.09.41C3 4.18 3 4.472 3 4.9v5.2c0 .428 0 .72.019.944.018.22.05.332.09.41a1 1 0 00.437.437c.078.04.19.072.41.09.225.019.516.019.944.019h5.2c.428 0 .72 0 .944-.019.22-.018.332-.05.41-.09a1 1 0 00.437-.437c.04-.078.072-.19.09-.41.019-.225.019-.516.019-.944V4.9c0-.428 0-.72-.019-.944-.018-.22-.05-.332-.09-.41a1 1 0 00-.437-.437c-.078-.04-.19-.072-.41-.09A12.925 12.925 0 0010.1 3H4.9c-.428 0-.72 0-.944.019z"
    fill="currentColor"
  />
</svg>
